assets/resources/icons/services/Servicio24-7.svg

<svg width="50" height="50" viewBox="0 0 50 50" fill="none" xmlns="http://www.w3.org/2000/svg">
<path d="M28.9002 35.1V36.7H32.1002V35.1H28.9002ZM28.9002 35.1V36.7H32.1002V35.1H28.9002ZM28.9002 35.1V36.7H32.1002V35.1H28.9002ZM28.9002 35.1V36.7H32.1002V35.1H28.9002ZM28.9002 35.1V36.7H32.1002V35.1H28.9002ZM28.9002 35.1V36.7H32.1002V35.1H28.9002ZM28.9002 35.1V36.7H32.1002V35.1H28.9002ZM28.9002 35.1V36.7H32.1002V35.1H28.9002ZM28.9002 35.1V36.7H32.1002V35.1H28.9002ZM28.9002 35.1V36.7H32.1002V35.1H28.9002ZM28.9002 35.1V36.7H32.1002V35.1H28.9002ZM28.9002 35.1V36.7H32.1002V35.1H28.9002ZM30.2002 25.45L29.1002 24.9L30.1002 24.15C32.3502 22.5 33.6502 19.95 33.6502 17.2C33.6502 16.1 33.4002 15.1 33.1002 14.2L33.0002 14L33.6002 10.95V7H16.4002L16.4502 11.1L17.0002 14L16.9002 14.2C16.6002 15.05 16.4002 16 16.4002 17.2C16.4002 19.95 17.7002 22.5 19.9502 24.15L20.9502 24.9L19.8502 25.45C15.8002 27.45 13.3002 31.45 13.3002 35.95V43H36.8002V35.95C36.7502 31.45 34.2502 27.4 30.2002 25.45ZM29.8002 27L30.7002 27.5L25.8002 32.4V25.85L26.6502 26C27.7502 26.15 28.8002 26.5 29.8002 27ZM18.0002 8.6H32.0002V11.1L31.5002 13.25H18.5002L18.0002 10.95V8.6ZM18.0002 17.2C18.0002 16.55 18.0502 16 18.1502 15.45L18.2502 14.85H31.5502L31.7002 15.4C31.8502 15.95 31.9502 16.55 31.9502 17.15C31.9502 21.15 28.9502 24.15 24.9502 24.15C20.9502 24.15 18.0002 21.2 18.0002 17.2ZM20.2002 27C21.2002 26.45 22.2502 26.1 23.3002 25.95L24.1502 25.8V32.35L19.3002 27.5L20.2002 27ZM35.1002 41.4H14.9002V35.95C14.9002 33.4 15.8002 31 17.5002 29.15L18.0502 28.55L25.0502 35.55L25.6502 34.95L32.0002 28.55L32.5502 29.15C34.2002 31 35.1502 33.4 35.1502 35.95V41.4H35.1002ZM28.9002 36.75H32.1002V35.15H28.9002V36.75ZM28.9002 35.1V36.7H32.1002V35.1H28.9002ZM28.9002 35.1V36.7H32.1002V35.1H28.9002ZM28.9002 35.1V36.7H32.1002V35.1H28.9002ZM28.9002 35.1V36.7H32.1002V35.1H28.9002ZM28.9002 35.1V36.7H32.1002V35.1H28.9002ZM28.9002 35.1V36.7H32.1002V35.1H28.9002ZM28.9002 35.1V36.7H32.1002V35.1H28.9002ZM28.9002 35.1V36.7H32.1002V35.1H28.9002ZM28.9002 35.1V36.7H32.1002V35.1H28.9002ZM28.9002 35.1V36.7H32.1002V35.1H28.9002ZM28.9002 35.1V36.7H32.1002V35.1H28.9002ZM28.9002 35.1V36.7H32.1002V35.1H28.9002Z" fill="#876671"/>
</svg>

<?xml version="1.0" encoding="utf-8"?>
<!-- Generator: Adobe Illustrator 25.0.0, SVG Export Plug-In . SVG Version: 6.00 Build 0)  -->
<svg version="1.1" id="Capa_1" xmlns="http://www.w3.org/2000/svg" xmlns:xlink="http://www.w3.org/1999/xlink" x="0px" y="0px"
	 viewBox="0 0 50 50" style="enable-background:new 0 0 50 50;" xml:space="preserve">
<style type="text/css">
	.st0{fill:#A52016;}
</style>
<path class="st0" d="M28.9,35.1v1.6h3.2v-1.6H28.9z M28.9,35.1v1.6h3.2v-1.6H28.9z M28.9,35.1v1.6h3.2v-1.6H28.9z M28.9,35.1v1.6
	h3.2v-1.6H28.9z M28.9,35.1v1.6h3.2v-1.6H28.9z M28.9,35.1v1.6h3.2v-1.6H28.9z M28.9,35.1v1.6h3.2v-1.6H28.9z M28.9,35.1v1.6h3.2
	v-1.6H28.9z M28.9,35.1v1.6h3.2v-1.6H28.9z M28.9,35.1v1.6h3.2v-1.6H28.9z M28.9,35.1v1.6h3.2v-1.6H28.9z M28.9,35.1v1.6h3.2v-1.6
	H28.9z M30.2,25.5l-1.1-0.6l1-0.8c2.2-1.6,3.5-4.2,3.5-6.9c0-1.1-0.2-2.1-0.5-3L33,14l0.6-3.1V7H16.4l0,4.1L17,14l-0.1,0.2
	c-0.3,0.9-0.5,1.8-0.5,3c0,2.8,1.3,5.3,3.5,6.9l1,0.8l-1.1,0.6c-4.1,2-6.6,6-6.6,10.5v7h23.5v-7C36.8,31.5,34.3,27.4,30.2,25.5z
	 M29.8,27l0.9,0.5l-4.9,4.9v-6.6l0.9,0.1C27.8,26.1,28.8,26.5,29.8,27z M18,8.6h14v2.5l-0.5,2.1h-13L18,10.9V8.6z M18,17.2
	c0-0.7,0-1.2,0.1-1.8l0.1-0.6h13.3l0.1,0.5c0.2,0.6,0.2,1.1,0.2,1.8c0,4-3,7-7,7S18,21.2,18,17.2z M20.2,27c1-0.5,2.1-0.9,3.1-1
	l0.9-0.2v6.5l-4.9-4.8L20.2,27z M35.1,41.4H14.9V36c0-2.5,0.9-5,2.6-6.8l0.5-0.6l7,7l0.6-0.6l6.3-6.4l0.6,0.6
	c1.6,1.9,2.6,4.3,2.6,6.8L35.1,41.4L35.1,41.4z M28.9,36.8h3.2v-1.6h-3.2V36.8z M28.9,35.1v1.6h3.2v-1.6H28.9z M28.9,35.1v1.6h3.2
	v-1.6H28.9z M28.9,35.1v1.6h3.2v-1.6H28.9z M28.9,35.1v1.6h3.2v-1.6H28.9z M28.9,35.1v1.6h3.2v-1.6H28.9z M28.9,35.1v1.6h3.2v-1.6
	H28.9z M28.9,35.1v1.6h3.2v-1.6H28.9z M28.9,35.1v1.6h3.2v-1.6H28.9z M28.9,35.1v1.6h3.2v-1.6H28.9z M28.9,35.1v1.6h3.2v-1.6H28.9z
	 M28.9,35.1v1.6h3.2v-1.6H28.9z M28.9,35.1v1.6h3.2v-1.6H28.9z"/>
</svg>
